packages/icons/src/service-gar.svg

<svg xmlns="http://www.w3.org/2000/svg" viewBox="0 0 33 32" fill="none">
<g clip-path="url(#clip0_2445_173498)">
<path d="M7.04209 28.8062L0.47959 17.4375C-0.0329102 16.55 -0.0329102 15.45 0.47959 14.5625L7.04209 3.19373C7.55459 2.30623 8.50459 1.75623 9.52959 1.75623H22.6546C23.6796 1.75623 24.6296 2.30623 25.1421 3.19373L31.7046 14.5625C32.2171 15.45 32.2171 16.55 31.7046 17.4375L25.1421 28.8062C24.6296 29.6937 23.6796 30.2437 22.6546 30.2437H9.52959C8.50459 30.2437 7.55459 29.6937 7.04209 28.8062Z" fill="url(#paint0_linear_2445_173498)"/>
<path opacity="0.07" d="M31.4421 18.7125L24.1046 11.3687L21.0296 10.625L20.5546 11.1125L22.9233 13.4812L22.9296 16.725L18.0421 11.8438L14.1546 11.8125L11.6546 9.3125L8.96708 11.5625L8.06708 20.6187L18.0233 30.5688L24.4671 30.5625L31.4421 18.7125Z" fill="black"/>
<path d="M20.5421 9.30627V11.0813L22.5921 12.2625V19.7375L20.5421 20.9188V22.6938L24.1546 20.6063V11.3938L20.5421 9.30627Z" fill="white"/>
<path d="M14.0921 14.1562L16.0921 15.3125L18.0921 14.1562V11.8438L16.0921 10.6875L14.0921 11.8438V14.1562Z" fill="white"/>
<path d="M16.7171 18.6562L18.7171 19.8125L20.7171 18.6562V16.3438L18.7171 15.1875L16.7171 16.3438V18.6562Z" fill="white"/>
<path d="M11.4671 18.6562L13.4671 19.8125L15.4671 18.6562V16.3438L13.4671 15.1875L11.4671 16.3438V18.6562Z" fill="white"/>
<path d="M11.6421 9.30627V11.0813L9.5921 12.2625V19.7375L11.6421 20.9188V22.6938L8.0296 20.6063V11.3938L11.6421 9.30627Z" fill="white"/>
</g>
<defs>
<linearGradient id="paint0_linear_2445_173498" x1="16.0921" y1="1.7584" x2="16.0921" y2="30.1974" gradientUnits="userSpaceOnUse">
<stop stop-color="#4387FD"/>
<stop offset="1" stop-color="#4683EA"/>
</linearGradient>
<clipPath id="clip0_2445_173498">
<rect width="32" height="32" fill="white" transform="translate(0.0921021)"/>
</clipPath>
</defs>
</svg>

<svg fill="none" viewBox="0 0 33 32" xmlns="http://www.w3.org/2000/svg" xmlns:xlink="http://www.w3.org/1999/xlink"><linearGradient id="a" gradientUnits="userSpaceOnUse" x1="16.0921" x2="16.0921" y1="1.7584" y2="30.1974"><stop offset="0" stop-color="#4387fd"/><stop offset="1" stop-color="#4683ea"/></linearGradient><clipPath id="b"><path d="m.092102 0h32v32h-32z"/></clipPath><g clip-path="url(#b)"><path d="m7.04209 28.8062-6.5625-11.3687c-.5125002-.8875-.5125002-1.9875 0-2.875l6.5625-11.36877c.5125-.8875 1.4625-1.4375 2.4875-1.4375h13.12501c1.025 0 1.975.55 2.4875 1.4375l6.5625 11.36877c.5125.8875.5125 1.9875 0 2.875l-6.5625 11.3687c-.5125.8875-1.4625 1.4375-2.4875 1.4375h-13.12501c-1.025 0-1.975-.55-2.4875-1.4375z" fill="url(#a)"/><path d="m31.4421 18.7125-7.3375-7.3438-3.075-.7437-.475.4875 2.3687 2.3687.0063 3.2438-4.8875-4.8812-3.8875-.0313-2.5-2.5-2.68752 2.25-.9 9.0562 9.95622 9.9501 6.4438-.0063z" fill="#000" opacity=".07"/><g fill="#fff"><path d="m20.5421 9.30627v1.77503l2.05 1.1812v7.475l-2.05 1.1813v1.775l3.6125-2.0875v-9.2125z"/><path d="m14.0921 14.1562 2 1.1563 2-1.1563v-2.3124l-2-1.1563-2 1.1563z"/><path d="m16.7171 18.6562 2 1.1563 2-1.1563v-2.3124l-2-1.1563-2 1.1563z"/><path d="m11.4671 18.6562 2 1.1563 2-1.1563v-2.3124l-2-1.1563-2 1.1563z"/><path d="m11.6421 9.30627v1.77503l-2.05 1.1812v7.475l2.05 1.1813v1.775l-3.6125-2.0875v-9.2125z"/></g></g></svg>
